X:40
T:Katie Scollard's Slide
B:Terry "Cuz" Teahan "Sliabh Luachra on Parade" 1980
Z:Patrick Cavanagh
M:12/8
L:1/8
R:Slide
K:D
f | e2d Bcd e2A d2f | e2d BBA d3 faf | 
e2A Bcd e2A d2f | ege d2B A3 A2 :| 
A | a2g efg a2e d3 | a2g efg a3 b3 | 
a2g efg a2e d3 | ege d2B A3 A2 :|| 

